packages/icons/svg/Outline/backspace.svg

<svg width="24" height="24" viewBox="0 0 24 24" fill="none" xmlns="http://www.w3.org/2000/svg">
<g id="Icon/Outline/backspace">
<path id="Mask" fill-rule="evenodd" clip-rule="evenodd" d="M11.2931 14.707C11.4881 14.902 11.7441 15 12.0001 15C12.2561 15 12.5121 14.902 12.7071 14.707L14.0001 13.414L15.2931 14.707C15.4881 14.902 15.7441 15 16.0001 15C16.2561 15 16.5121 14.902 16.7071 14.707C17.0981 14.316 17.0981 13.684 16.7071 13.293L15.4141 12L16.7071 10.707C17.0981 10.316 17.0981 9.684 16.7071 9.293C16.3161 8.902 15.6841 8.902 15.2931 9.293L14.0001 10.586L12.7071 9.293C12.3161 8.902 11.6841 8.902 11.2931 9.293C10.9021 9.684 10.9021 10.316 11.2931 10.707L12.5861 12L11.2931 13.293C10.9021 13.684 10.9021 14.316 11.2931 14.707ZM20.0001 18H10.3701C10.1211 18 9.88206 17.907 9.69707 17.739L4.36907 12.894L9.74607 6.219C9.92307 6.077 10.1431 6 10.3701 6H20.0001V18ZM20.1411 4H10.3701C9.62206 4 8.90507 4.277 8.35207 4.781C8.31307 4.815 8.27807 4.854 8.24607 4.894L2.22207 12.373C1.89007 12.785 1.93607 13.384 2.32707 13.74L8.35207 19.219C8.90507 19.723 9.62206 20 10.3701 20H20.1411C21.1661 20 22.0001 19.185 22.0001 18.182V5.818C22.0001 4.815 21.1661 4 20.1411 4Z" fill="#000000"/>
</g>
</svg>

<svg fill="none" height="24" viewBox="0 0 24 24" width="24" xmlns="http://www.w3.org/2000/svg"><path clip-rule="evenodd" d="m11.293 14.7069c.195.195.451.293.707.293s.512-.098.707-.293l1.293-1.293 1.293 1.293c.195.195.451.293.707.293s.512-.098.707-.293c.391-.391.391-1.023 0-1.414l-1.293-1.293 1.293-1.293c.391-.391.391-1.02303 0-1.41403s-1.023-.391-1.414 0l-1.293 1.29303-1.293-1.29303c-.391-.391-1.023-.391-1.414 0s-.391 1.02303 0 1.41403l1.293 1.293-1.293 1.293c-.391.391-.391 1.023 0 1.414zm8.707 3.2932h-9.63c-.249 0-.488-.093-.673-.261l-5.328-4.845 5.377-6.67503c.177-.142.397-.219.624-.219h9.63zm.141-14.0001h-9.771c-.748 0-1.465.277-2.018.781-.039.034-.074.073-.106.113l-6.024 7.479c-.332.412-.286 1.011.105 1.367l6.025 5.479c.553.504 1.27.781 2.018.781h9.771c1.025 0 1.859-.815 1.859-1.818v-12.364c0-1.003-.834-1.818-1.859-1.818z" fill="#6b7280" fill-rule="evenodd"/></svg>
